**kern	**kern
*staff2	*staff1
*clefF4	*clefG2
*k[b-]	*k[b-]
*M3/4	*M3/4
=-	=-
16ELL	4c
16C	.
16BB-	.
16GGJJ	.
=222	=222
16AALL	(4f
16FF	.
16AA	.
16CJJ	.
16FLL	4c)
16A	.
16c	.
16AJJ	.
16FLL	4f'
16C	.
16AA	.
16FFJJ	.
=223	=223
16r	(4g
16CCLL	.
16EE	.
16GGJJ	.
16CLL	4c)
16E	.
16G	.
16EJJ	.
16CLL	4g'
16GG	.
16EE	.
16CCJJ	.
=224	=224
*	*^
16FFLL	(4a	2r
16AA	.	.
16C	.	.
16FJJ	.	.
16DDLL	4f)	.
16FF	.	.
16AA	.	.
16DJJ	.	.
16BBB-LL	4b-	4g
16DD	.	.
16GG	.	.
16BB-JJ	.	.
=225	=225	=225
16CCLL	(4a	(4f
16FF	.	.
16AA	.	.
16CJJ	.	.
16BBLL	4g)	4e)
16C	.	.
16D	.	.
16CJJ	.	.
16AALL	4cc'	4e
16BB-	.	.
16C	.	.
16BB-JJ	.	.
=226	=226	=226
16AALL	(4cc	4f
16C	.	.
16F	.	.
16AAJJ	.	.
16GGLL	4b-	4e
16C	.	.
16E	.	.
16GGJJ	.	.
16FFLL	4a)	4f
16C	.	.
16F	.	.
16FFJJ	.	.
=227	=227	=227
16BB-LL	(4dd	2.d
16F	.	.
16D	.	.
16FJJ	.	.
16BB-LL	4b-	.
16F#	.	.
16D	.	.
16F#JJ	.	.
16BB-LL	4g)	.
16G	.	.
16D	.	.
16GJJ	.	.
=228	=228	=228
16CLL	(4f	4c
16A	.	.
16F	.	.
16AJJ	.	.
16CLL	4g	2e
16B-	.	.
16G	.	.
16B-JJ	.	.
16CLL	4cc)	.
16G	.	.
16E	.	.
16GJJ	.	.
=229	=229	=229
16C#LL	(4g 4b-	(4e
16E	.	.
16G	.	.
16c#JJ	.	.
16DLL	4f) 4a	4f)
16F	.	.
16A	.	.
16dJJ	.	.
16CLL	4cc	4e
16c	.	.
16BB-	.	.
16B-JJ	.	.
*	*v	*v
=230	=230
16AALL	(4f 4cc
16C	.
16F	.
16AAJJ	.
16GGLL	4e 4b-
16C	.
16E	.
16GGJJ	.
16FFLL	4f) 4a
16C	.
16F	.
16FFJJ	.
=231	=231
16BB-LL	(4f 4b- 4dd
16F	.
16D	.
16FJJ	.
16BB-LL	4g 4dd- 4ee
16G	.
16E	.
16GJJ	.
16BBLL	4a-) 4dd 4ff
16A-	.
16F	.
16A-JJ	.
=232	=232
16CLL	(4f 4a
16F	.
16A	.
16cJJ	.
16BB-LL	4g) 4b-
16D	.
16G	.
16B-JJ	.
16CLL	4e 4g
16E	.
16G	.
16cJJ	.
=233	=233
4F	4f
4FF	4r
*-	*-
